!!!!SEGMENT: pl-cz--i-155--003-005_anonim--partita-es-finale.krn
!!!cenid: 18xx:2506
!!!COM: Anonim
!!!COM-rismID: pe30004985
!!!CDT:
!!!CNT:
!!!OPR: Partita Es
!!!OTL: Finale
!!!OMV: 005
!!!PDT:
!!!AGN: Secular; Partita
!!!YEC: Copyright 2022 Narodowy Instytut Fryderyka Chopina (https://polishscores.org)
!!!YEM: License CC-BY-4.0 (https://creativecommons.org/licenses/by/4.0)
!!!SMS-siglum: PL-CZ
!!!SMS-shelfmark: I-155
!!!SMS-shelfwork: 003-005 M
!!!SMS-variant:
!!!SMS-altvar:
!!!NIFC-rismSourceID: 1001012506
!!!NIFC-rismChildID: 1001012510
!!!NIFC-islandoraID: pl-cz:814
!!!URL-pdf-islandora: https://repozytorium.nifc.pl/islandora/object/pl-cz%3A814/datastream/PDF/view
!!!URL-scan: https://polish.musicsources.pl/pl/lokalizacje/galeria/rekopisy/557 @EN{Scan on Polish Music Sources Website} @PL{Skany w portalu Dziedzictwo Muzyki Polskiej w otwartym dostępie}
!!!IIIF:
!!!ONB-nifc: UWAGA: Parthia 3 (003), części: 1. Adagio, 2. Allegro, 3. Menuetto, 4. Poloneser, 5. Finale. Uwaga: 5 partii
!!!AIN: 2 clars 2 cor 1 fagot
!!!key:
**kern	**kern	**kern	**kern	**kern
*part5	*part4	*part3	*part2	*part1
*staff5	*staff4	*staff3	*staff2	*staff1
*Icor	*Icor	*Ifagot	*Iclars	*Iclars
*I"Corno Secondo	*I"Corno Primo.	*I"Fagotto	*I"Clarinetto Secondo	*I"Clarinetto Primo
*I'cor 2 in E|b	*I'cor 1 in E|b	*I'fag	*I'cl 2	*I'cl 1
*>[A,A,B,B,C,C,D,D,A,A,B,B]	*>[A,A,B,B,C,C,D,D,A,A,B,B]	*>[A,A,B,B,C,C,D,D,A,A,B,B]	*>[A,A,B,B,C,C,D,D,A,A,B,B]	*>[A,A,B,B,C,C,D,D,A,A,B,B]
*clefG2	*clefG2	*clefF4	*clefG2	*clefG2
*ITrd5c9	*ITrd5c9	*	*ITrd1c2	*ITrd1c2
*k[b-e-a-]	*k[b-e-a-]	*k[b-e-a-]	*k[b-e-a-]	*k[b-e-a-]
*E-:	*E-:	*E-:	*E-:	*E-:
*M3/8	*M3/8	*M3/8	*M3/8	*M3/8
*>A	*>A	*>A	*>A	*>A
*all\right	*all\right	*all\right	*all\right	*all\right
!	!	!LO:TX:a:i:t=Allo	!	!
8r	8r	8r	8r	8b-\
=1	=1	=1	=1	=1
*	*	*	*tremolo	*
8E-/L	8e-\L	8e-\L	8g/L	8ee-\L
8E-/	8e-\	8e-\	8g/	8ee-\
8E-/J	8e-\J	8e-\J	8g/J	8ee-\J
=2	=2	=2	=2	=2
4E-/	4e-\	4.e-\	4g/	16ee-\LL
.	.	.	.	16dd\
.	.	.	.	16ee-\
.	.	.	.	16ff\
8r	8r	.	8r	16gg\
.	.	.	.	16ee-\JJ
=3	=3	=3	=3	=3
8E-/L	8e-\L	4.e-\	8a-/L	8dd\L
8E-/	8e-\	.	8a-/	8cc\
8E-/J	8e-\J	.	8a-/J	8cc\J
*	*	*	*Xtremolo	*
=4	=4	=4	=4	=4
4E-/	4e-\	4.e-\	4a-/	4cc\
8r	8r	.	8r	8r
=5	=5	=5	=5	=5
4B-/	4f\	8BB-/L	8ff\	4aa-\
.	.	16D/L	4ff\	.
.	.	16F/	.	.
8B-/	8f\	16D/	.	8aa-\
.	.	16BB-/JJ	.	.
!	!	!	!	!LO:LB:g=original
=6	=6	=6	=6	=6
4e-\	4g\	16r	4ee-\	4gg\
.	.	16E-\LL	.	.
.	.	16G\	.	.
.	.	16B-\	.	.
8e-\	8g\	16G\	8ee-\	8gg\
.	.	16E-\JJ	.	.
!	!	!LO:LB:g=original	!	!
=7	=7	=7	=7	=7
!	!	!LO:TX:t=P:problem=mixed beam	!	!
8B-/L	8f\L	8BB-/L	8a-/L	8ff\L
8G/	8e-\	8B-\	8g/	8ee-\
8B-/J	8f\J	8B-\J	8a-/J	8ff\J
=8	=8	=8	=8	=8
!	!	!LO:SIC:v:s=4E-	!	!LO:TX:b:t=8
4G/	4e-\	4BB-/	4g/	4ee-\
!LO:LB:g=original	!LO:LB:g=original	!	!LO:LB:g=original	!
=:!|!:	=:!|!:	=:!|!:	=:!|!:	=:!|!:
*>B	*>B	*>B	*>B	*>B
!	!	!	!	!LO:TX:t=P:problem=nieprawidłowe wyświetlanie kreski taktowej
8r	8r	8r	8r	8b-\
=9	=9	=9	=9	=9
4B-/	4f\	16B-\LL	4dd\	4ff\
.	.	16An\	.	.
.	.	16B-\	.	.
.	.	16A\	.	.
8e-\	8g\	16B-\	8ee-\	8gg\
.	.	16A\JJ	.	.
=10	=10	=10	=10	=10
!	!	!LO:TX:t=P:problem=mixed beam	!	!
4B-/	4f\	8B-\L	8dd\L	8ff\L
.	.	8BB-/J	16gg\L	16bb-\L
.	.	.	16ff\	16aa-\
8r	8r	8r	16ee-\	16gg\
.	.	.	16dd\JJ	16ff\JJ
=11	=11	=11	=11	=11
!	!	!	!LO:SIC:v:s=4ff\	!
!	!	!	!LO:TX:a:t=e	!
4G/	4e-\	16e-\LL	4dd\	4gg\
.	.	16d\	.	.
.	.	16e-\	.	.
.	.	16B-\	.	.
!	!	!	!LO:SIC:v:s=8gg\	!
!	!	!	!LO:TX:a:t=f	!
8B-/	8f\	16c\	8ee-\	8aa-\
.	.	16d\JJ	.	.
=12	=12	=12	=12	=12
!	!	!	!LO:SIC:v:s-8ff\	!
4G/	4e-\	8e-\L	8dd\	4bb-\
.	.	8E-\J	8r	.
8r	8r	8r	8r	8b-\
!	!	!LO:LB:g=original	!	!LO:LB:g=original
=13	=13	=13	=13	=13
*	*	*	*tremolo	*
8E-/L	8e-\L	8e-\L	8g/L	8ee-\L
8E-/	8e-\	8e-\	8g/	8ee-\
8E-/J	8e-\J	8e-\J	8g/J	8ee-\J
=14	=14	=14	=14	=14
4E-/	4e-\	4.e-\	4g/	16ee-\LL
.	.	.	.	16dd\
.	.	.	.	16ee-\
.	.	.	.	16ff\
8r	8r	.	8r	16gg\
.	.	.	.	16ee-\JJ
=15	=15	=15	=15	=15
*tremolo	*	*	*	*
8E-/L	8e-\L	8e-\L	8a-/L	8dd\L
8E-/	8e-\	8e-\	8a-/	8cc\
8E-/J	8e-\J	8e-\J	8a-/J	8cc\J
*Xtremolo	*	*	*Xtremolo	*
=16	=16	=16	=16	=16
4E-/	4e-\	4.e-\	4a-/	4cc\
8r	8r	.	8r	8r
=17	=17	=17	=17	=17
8B-/	8f\	16r	4ff\	4aa-\
.	.	16BB-/LL	.	.
8r	8r	16D/	.	.
.	.	16F/	.	.
8B-/	8f\	16D/	8ff\	8aa-\
.	.	16BB-/JJ	.	.
=18	=18	=18	=18	=18
8e-\	8g\	16r	4ee-\	4gg\
.	.	16E-\LL	.	.
8r	8r	16G\	.	.
.	.	16B-\	.	.
8e-\	8g\	16G\	8ee-\	8gg\
.	.	16E-\JJ	.	.
!LO:LB:g=original	!LO:LB:g=original	!	!	!
=19	=19	=19	=19	=19
!	!	!LO:TX:t=P:problem=mixed beam	!	!
8B-/L	8f\L	8BB-/L	8a-/L	8ff\L
8G/	8e-\	8B-\	8g/	8ee-\
8B-/J	8f\J	8B-\J	8a-/J	8ff\J
!	!	!	!LO:LB:g=original	!
=20	=20	=20	=20	=20
!LO:TX:b:t=12	!LO:TX:b:t=12	!	!LO:TX:b:t=12	!LO:TX:b:t=12
4G/	4e-\	8E-\L	4g/	4ee-\
!	!	!LO:TX:b:t=12	!	!
.	.	8e-\J	.	.
!	!	!LO:LB:g=original	!	!LO:LB:g=original
=:!|!:	=:!|!:	=:!|!:	=:!|!:	=:!|!:
*>C	*>C	*>C	*>C	*>C
*M3/8	*M3/8	*M3/8	*M3/8	*M3/8
!	!LO:TX:a:i:t=Trio	!LO:TX:a:i:t=Trio	!LO:TX:a:i:t=Trio	!LO:TX:a:i:t=Trio
16g\LL	16b-\LL	8B-\	16gg\LL	16bb-\LL
!	!	!	!	!LO:TX:t=P:problem=nieprawidłowe wyświetlanie kreski taktowej
16f\JJ	16a-\JJ	.	16ff\JJ	16aa-\JJ
=21	=21	=21	=21	=21
*	*	*	*tremolo	*
8e-\L	8g\L	8e-\L	8ee-\L	8gg\L
8e-\	8g\	16B-\L	8ee-\	8gg\
.	.	16A-\	.	.
8e-\J	8g\J	16G\	8ee-\J	8gg\J
.	.	16F\JJ	.	.
*	*	*	*Xtremolo	*
=22	=22	=22	=22	=22
4e-\	4g\	4E-\	4ee-\	4gg\
16a-\LL	16cc\LL	8r	16aa-\LL	16ccc\LL
16g\JJ	16b-\JJ	.	16gg\JJ	16bb-\JJ
=23	=23	=23	=23	=23
*	*	*	*tremolo	*
8f\L	8a-\L	8B-\L	8ff\L	8aa-\L
8f\	8a-\	16F\L	8ff\	8aa-\
.	.	16E-\	.	.
8f\J	8a-\J	16D\	8ff\J	8aa-\J
.	.	16C\JJ	.	.
*	*	*	*Xtremolo	*
=24	=24	=24	=24	=24
8f\	8a-\	4BB-/	4ff\	8aa-\
8r	8r	.	.	8r
16f\LL	16a-\LL	8r	16ff\LL	16aa-\LL
16e-\JJ	16g\JJ	.	16ee-\JJ	16gg\JJ
=25	=25	=25	=25	=25
*tremolo	*	*	*tremolo	*
8B-/L	8f\L	16BB-/LL	8dd\L	8ff\L
.	.	16D/	.	.
8B-/	8f\	16F/	8dd\	8ff\
.	.	16E-/	.	.
8B-/J	8f\J	16D/	8dd\J	8ff\J
.	.	16C/JJ	.	.
*Xtremolo	*	*	*tremolo	*
!	!	!	!	!LO:LB:g=original
=26	=26	=26	=26	=26
4B-/	4f\	4BB-/	4dd\	4ff\
16g\LL	16b-\LL	8r	16gg\LL	16bb-\LL
16f\JJ	16a-\JJ	.	16ff\JJ	16aa-\JJ
!	!LO:LB:g=original	!LO:LB:g=original	!	!
=27	=27	=27	=27	=27
8e-/L	8g\L	16E-\LL	8ee-\L	8gg\L
.	.	16G\	.	.
8B-/	8g\	16B-\	8ee-\	8gg\
.	.	16A-\	.	.
8G/J	8g\J	16G\	8ee-\J	8gg\J
.	.	16F\JJ	.	.
*	*	*	*Xtremolo	*
!LO:LB:g=original	!	!	!	!
=28	=28	=28	=28	=28
!	!LO:N:vis=4	!	!	!LO:TX:b:t=8
4E-/	8g\	4E-\	4ee-\	4gg\
.	8r	.	.	.
!	!LO:TX:a:t=Trio	!	!LO:LB:g=original	!
=:!|!:	=:!|!:	=:!|!:	=:!|!:	=:!|!:
*>D	*>D	*>D	*>D	*>D
!	!	!	!	!LO:TX:t=P:problem=nieprawidłowe wyświetlanie kreski taktowej
8r	8r	8r	8r	8ee-\
=29	=29	=29	=29	=29
!LO:N:vis=00	!LO:N:vis=00	!	!	!
1.r	1.r	4.C/	4ee-\	4gg\
.	.	.	8cc\	8ee-\
=30	=30	=30	=30	=30
.	.	4.GG/	4bX\	4dd\
.	.	.	8cc\	8ee-\
=31	=31	=31	=31	=31
.	.	4BBn/	4dd\	4ff\
.	.	8C/	8cc\	8ee-\
=32	=32	=32	=32	=32
.	.	4GG/	4bX\	4dd\
!	!	!	!	!LO:N:vis=4
!	!	!	!	!LO:SIC:v:s=8b-\
.	.	8r	8r	8b--\
!	!	!	!	!LO:LB:g=original
=33	=33	=33	=33	=33
4G/	4e-\	8E-\L	4gg\	4gg\
.	.	8e-\	.	.
8G/	8e-\	8e-\J	8ee-\	8gg\
=34	=34	=34	=34	=34
!	!	!LO:TX:t=P:problem=mixed beam	!	!
4B-/	4f\	8BB-/L	4dd\	4ff\
.	.	8B-\	.	.
8e-\	8g\	8e-\J	8ee-\	8gg\
=35	=35	=35	=35	=35
!	!	!LO:TX:t=P:problem=mixed beam	!	!
4B-/	4f\	8BB-/L	4ff\	8aa-\L
!	!	!	!	!LO:TX:a:t=g
.	.	8B-\	.	8ff\
!	!	!	!	!LO:TX:a:t=e
8B-/	8f\	8BB-/J	8b-\	8dd\J
=36	=36	=36	=36	=36
!	!	!LO:TX:t=P:problem=mixed beam	!	!
4G/	4e-\	8E-\L	4g/	4ee-\
.	.	8EE-/J	.	.
!	!	!	!	!LO:TX:b:i:t=Finale Da Capo
!LO:TX:b:i:t=Finalle Da Capo	!	!LO:TX:a:t=Finale Da Capo	!	!LO:TX:b:t=8
8ryy	8r	8ryy	8ryy	8r
=:!|	=:!|	=:!|	=:!|	=:!|
*-	*-	*-	*-	*-
!!!system-decoration: [(s1,s2,s3)][(s4,s5)]
!!!ENC: Krzysztof Stępień
!!!END: 2021-06-16
!!!EED: Andrzej Borzym
!!!EEV: 2021-06-20
